src/svg/chevron-circle-up.svg

<svg height="1000" width="1000.0" xmlns="http://www.w3.org/2000/svg">
    <path d="m15.6 500c0-267.6 216.8-484.4 484.4-484.4s484.4 216.8 484.4 484.4-216.8 484.4-484.4 484.4-484.4-216.8-484.4-484.4z m451.2-222.5l-264.7 264.7c-18.3 18.3-18.3 48 0 66.2l33.3 33.2c18.3 18.4 48 18.4 66.2 0l198.4-198.4 198.4 198.4c18.4 18.4 48.1 18.4 66.3 0l33.2-33.2c18.3-18.4 18.3-48 0-66.2l-264.7-264.7c-18.4-18.3-48-18.3-66.4 0z" />
  </svg>

<svg height="1000" width="1000" xmlns="http://www.w3.org/2000/svg"><path d="M15.6 500C15.6 232.4 232.4 15.6 500 15.6S984.4 232.4 984.4 500 767.6 984.4 500 984.4 15.6 767.6 15.6 500zM466.8 277.5L202.1 542.2c-18.3 18.3 -18.3 48 0 66.2l33.3 33.2c18.3 18.4 48 18.4 66.2 0L500 443.2l198.4 198.4c18.4 18.4 48.1 18.4 66.2 0l33.3 -33.2c18.3 -18.4 18.3 -48 0 -66.2L533.2 277.5c-18.4 -18.3 -48 -18.3 -66.4 0z"/></svg>
